img/discord.svg

<svg width="201" height="201" viewBox="0 0 201 201" fill="none" xmlns="http://www.w3.org/2000/svg">
<g filter="url(#filter0_di_4417_4)">
<rect x="19" y="96.3174" width="115" height="115" rx="15" transform="rotate(-45 19 96.3174)" fill="url(#paint0_linear_4417_4)"/>
</g>
<path d="M123 123L117.227 117.884L113.973 114.843L110.533 111.632L111.946 116.631H81.5043C78.4557 116.62 75.9922 114.128 76 111.063V74.562C75.9953 71.4993 78.4579 69.011 81.5043 69H117.496C120.542 69.011 123.005 71.4993 123 74.562V123ZM110.208 98.8648C109.015 100.472 107.299 101.607 105.359 102.071C106.156 103.094 107.118 104.251 107.126 104.262C110.369 104.331 113.44 102.798 115.344 100.158C115.247 94.6861 113.925 89.3066 111.477 84.4184C109.322 82.7182 106.698 81.7259 103.963 81.5763H103.931L103.555 82.0083C105.999 82.6681 108.278 83.8358 110.244 85.4359C107.742 84.0529 104.996 83.1726 102.159 82.8439C100.356 82.6426 98.5353 82.6607 96.7366 82.8979C96.6094 82.9004 96.4827 82.9137 96.3577 82.9377H96.2786C94.1706 83.1817 92.1138 83.7571 90.1834 84.6429C89.2166 85.0892 88.6229 85.4132 88.5974 85.4245C88.572 85.4359 88.5974 85.4245 88.5974 85.4046C90.6835 83.7552 93.0901 82.5634 95.6623 81.906L95.3796 81.582H95.3626C92.6271 81.732 90.0037 82.7242 87.8483 84.4241C85.3913 89.3089 84.0689 94.6906 83.9808 100.164C85.8618 102.821 88.9367 104.36 92.1793 104.268C92.1793 104.268 93.1914 103.029 93.9802 102.025C92.0889 101.547 90.4224 100.422 89.2675 98.8421C89.2872 98.8563 89.5671 99.0467 90.0195 99.2968C90.0498 99.3327 90.0874 99.3618 90.1297 99.3821C90.1655 99.407 90.2034 99.4289 90.2428 99.4475C90.2875 99.4679 90.3301 99.4926 90.37 99.5214C91.0008 99.8709 91.6555 100.175 92.3292 100.431C93.61 100.941 94.9349 101.331 96.2871 101.596C97.4709 101.82 98.6728 101.935 99.8774 101.937C101.007 101.937 102.134 101.832 103.244 101.625C104.582 101.388 105.888 100.999 107.137 100.465C108.217 100.048 109.246 99.511 110.208 98.8648ZM104.446 97.6513C103.216 97.7591 102.046 97.0968 101.5 95.9835C100.955 94.8702 101.145 93.5342 101.979 92.6192C102.813 91.7042 104.12 91.3978 105.271 91.8478C106.422 92.2977 107.18 93.4116 107.18 94.6528C107.242 96.2385 106.02 97.5775 104.443 97.6513H104.446ZM94.6417 97.6513C93.0949 97.5157 91.9078 96.2138 91.9078 94.6528C91.9078 93.0919 93.0949 91.79 94.6417 91.6544C95.3542 91.6566 96.0355 91.9488 96.5302 92.4644C97.0915 93.0501 97.3968 93.8369 97.3783 94.65C97.4437 96.2384 96.2186 97.5806 94.6389 97.6513H94.6417Z" fill="white"/>
<defs>
<filter id="filter0_di_4417_4" x="0.213257" y="0.213379" width="200.208" height="200.208" filterUnits="userSpaceOnUse" color-interpolation-filters="sRGB">
<feFlood flood-opacity="0" result="BackgroundImageFix"/>
<feColorMatrix in="SourceAlpha" type="matrix" values="0 0 0 0 0 0 0 0 0 0 0 0 0 0 0 0 0 0 127 0" result="hardAlpha"/>
<feOffset dy="4"/>
<feGaussianBlur stdDeviation="12.5"/>
<feComposite in2="hardAlpha" operator="out"/>
<feColorMatrix type="matrix" values="0 0 0 0 0.0392157 0 0 0 0 0.65098 0 0 0 0 0.996078 0 0 0 0.48 0"/>
<feBlend mode="normal" in2="BackgroundImageFix" result="effect1_dropShadow_4417_4"/>
<feBlend mode="normal" in="SourceGraphic" in2="effect1_dropShadow_4417_4" result="shape"/>
<feColorMatrix in="SourceAlpha" type="matrix" values="0 0 0 0 0 0 0 0 0 0 0 0 0 0 0 0 0 0 127 0" result="hardAlpha"/>
<feOffset/>
<feGaussianBlur stdDeviation="12.5"/>
<feComposite in2="hardAlpha" operator="arithmetic" k2="-1" k3="1"/>
<feColorMatrix type="matrix" values="0 0 0 0 0 0 0 0 0 0.197167 0 0 0 0 0.704167 0 0 0 0.3 0"/>
<feBlend mode="normal" in2="shape" result="effect2_innerShadow_4417_4"/>
</filter>
<linearGradient id="paint0_linear_4417_4" x1="11.4766" y1="-172.016" x2="315.545" y2="-101.769" gradientUnits="userSpaceOnUse">
<stop stop-color="#0AA6FE"/>
<stop offset="1" stop-color="#05FFFF"/>
</linearGradient>
</defs>
</svg>

<svg width="201" height="201" fill="none" xmlns="http://www.w3.org/2000/svg"><g filter="url(#a)"><rect x="19" y="96.317" width="115" height="115" rx="15" transform="rotate(-45 19 96.317)" fill="url(#b)"/></g><path d="m123 123-5.773-5.116-3.254-3.041-3.44-3.211 1.413 4.999H81.504c-3.048-.011-5.512-2.503-5.504-5.568V74.562c-.005-3.063 2.458-5.551 5.504-5.562h35.992c3.046.011 5.509 2.5 5.504 5.562V123Zm-12.792-24.135a8.505 8.505 0 0 1-4.849 3.206c.797 1.023 1.759 2.18 1.767 2.191a9.874 9.874 0 0 0 8.218-4.104 36.602 36.602 0 0 0-3.867-15.74 13.305 13.305 0 0 0-7.514-2.842h-.032l-.376.432a18.05 18.05 0 0 1 6.689 3.428 21.928 21.928 0 0 0-8.085-2.592 22.434 22.434 0 0 0-5.422.054 2.243 2.243 0 0 0-.38.04h-.078c-2.108.244-4.165.82-6.096 1.705-.966.446-1.56.77-1.586.781-.025.012 0 0 0-.02a18.961 18.961 0 0 1 7.065-3.498l-.282-.324h-.017a13.31 13.31 0 0 0-7.515 2.842 36.332 36.332 0 0 0-3.867 15.74 9.709 9.709 0 0 0 8.198 4.104s1.012-1.239 1.801-2.243a8.383 8.383 0 0 1-4.713-3.183c.02.014.3.205.752.455.03.036.068.065.11.085a.785.785 0 0 0 .114.066c.044.02.087.045.127.073.63.35 1.285.654 1.96.91 1.28.51 2.605.9 3.957 1.165 1.184.224 2.386.339 3.59.341 1.13 0 2.257-.105 3.367-.312a17.798 17.798 0 0 0 3.893-1.16 15.554 15.554 0 0 0 3.071-1.6Zm-5.762-1.214a2.992 2.992 0 0 1-2.946-1.667 3.024 3.024 0 0 1 .479-3.365 2.982 2.982 0 0 1 3.292-.771 3.01 3.01 0 0 1 1.909 2.805 2.882 2.882 0 0 1-2.737 2.998h.003Zm-9.804 0a3.004 3.004 0 0 1-2.734-2.998 3.004 3.004 0 0 1 2.734-2.999 2.628 2.628 0 0 1 1.888.81c.561.586.867 1.373.848 2.186a2.879 2.879 0 0 1-2.74 3.001h.004Z" fill="#fff"/><defs><linearGradient id="b" x1="11.477" y1="-172.016" x2="315.545" y2="-101.769" gradientUnits="userSpaceOnUse"><stop stop-color="#0AA6FE"/><stop offset="1" stop-color="#05FFFF"/></linearGradient><filter id="a" x=".213" y=".213" width="200.208" height="200.208" filterUnits="userSpaceOnUse" color-interpolation-filters="sRGB"><feFlood flood-opacity="0" result="BackgroundImageFix"/><feColorMatrix in="SourceAlpha" values="0 0 0 0 0 0 0 0 0 0 0 0 0 0 0 0 0 0 127 0" result="hardAlpha"/><feOffset dy="4"/><feGaussianBlur stdDeviation="12.5"/><feComposite in2="hardAlpha" operator="out"/><feColorMatrix values="0 0 0 0 0.0392157 0 0 0 0 0.65098 0 0 0 0 0.996078 0 0 0 0.48 0"/><feBlend in2="BackgroundImageFix" result="effect1_dropShadow_4417_4"/><feBlend in="SourceGraphic" in2="effect1_dropShadow_4417_4" result="shape"/><feColorMatrix in="SourceAlpha" values="0 0 0 0 0 0 0 0 0 0 0 0 0 0 0 0 0 0 127 0" result="hardAlpha"/><feOffset/><feGaussianBlur stdDeviation="12.5"/><feComposite in2="hardAlpha" operator="arithmetic" k2="-1" k3="1"/><feColorMatrix values="0 0 0 0 0 0 0 0 0 0.197167 0 0 0 0 0.704167 0 0 0 0.3 0"/><feBlend in2="shape" result="effect2_innerShadow_4417_4"/></filter></defs></svg>
